packages/ffe-icons/icons/open/300/md/heap_snapshot_multiple.svg

<svg xmlns="http://www.w3.org/2000/svg" height="24" viewBox="0 -960 960 960" width="24"><path d="M450-520.001q16.769 0 28.384-11.616 11.615-11.615 11.615-28.384t-11.615-28.384Q466.769-600 450-600t-28.384 11.615q-11.615 11.615-11.615 28.384t11.615 28.384q11.615 11.616 28.384 11.616Zm28.692 154.077 166-166q8.923-8.923 9.115-21.192.192-12.269-9.115-21.577Q635.384-584 623.308-584q-12.077 0-21.384 9.307L435.308-408.077q-8.923 8.923-8.807 20.884.115 11.961 9.423 21.269 9.307 9.307 21.384 9.307 12.076 0 21.384-9.307ZM630-340.001q16.769 0 28.384-11.616 11.615-11.615 11.615-28.384t-11.615-28.384Q646.769-420 630-420t-28.384 11.615q-11.615 11.615-11.615 28.384t11.615 28.384q11.615 11.616 28.384 11.616Zm117.691 120H332.309q-30.308 0-51.308-21t-21-51.308v-535.382q0-30.308 21-51.308t51.308-21h247.769q14.461 0 27.807 5.616 13.346 5.615 23.193 15.461l167.844 167.844q9.846 9.847 15.461 23.193 5.616 13.346 5.616 27.807v367.769q0 30.308-21 51.308t-51.308 21Zm12.309-440H628.462q-20.384 0-34.422-14.039-14.039-14.038-14.039-34.422V-840H332.309q-4.616 0-8.463 3.846-3.846 3.847-3.846 8.463v535.382q0 4.616 3.846 8.463 3.847 3.846 8.463 3.846h415.382q4.616 0 8.463-3.846 3.846-3.847 3.846-8.463v-367.692Zm-587.691 600q-30.308 0-51.308-21t-21-51.308v-497.69q0-12.769 8.616-21.384 8.615-8.616 21.384-8.616t21.384 8.616Q160-642.768 160-629.999v497.69q0 4.616 3.846 8.463 3.847 3.846 8.463 3.846h377.69q12.769 0 21.384 8.615 8.616 8.615 8.616 21.384 0 12.77-8.616 21.384Q562.768-60 549.999-60h-377.69ZM320-840v179.999V-840v560V-840Z"/></svg>

<svg xmlns="http://www.w3.org/2000/svg" height="24" viewBox="0 -960 960 960" width="24"><path d="M450-520q16.77 0 28.38-11.62Q490-543.23 490-560t-11.62-28.38Q466.77-600 450-600t-28.38 11.62Q410-576.77 410-560t11.62 28.38Q433.23-520 450-520Zm28.69 154.08 166-166q8.92-8.93 9.12-21.2.19-12.27-9.12-21.57-9.31-9.31-21.38-9.31-12.08 0-21.39 9.31L435.31-408.08q-8.92 8.93-8.81 20.89.12 11.96 9.42 21.27 9.31 9.3 21.39 9.3 12.07 0 21.38-9.3ZM630-340q16.77 0 28.38-11.62Q670-363.23 670-380t-11.62-28.38Q646.77-420 630-420t-28.38 11.62Q590-396.77 590-380t11.62 28.38Q613.23-340 630-340Zm117.69 120H332.31Q302-220 281-241q-21-21-21-51.31v-535.38Q260-858 281-879q21-21 51.31-21h247.77q14.46 0 27.81 5.62 13.34 5.61 23.19 15.46l167.84 167.84q9.85 9.85 15.46 23.19 5.62 13.35 5.62 27.81v367.77Q820-262 799-241q-21 21-51.31 21ZM760-660H628.46q-20.38 0-34.42-14.04Q580-688.08 580-708.46V-840H332.31q-4.62 0-8.46 3.85-3.85 3.84-3.85 8.46v535.38q0 4.62 3.85 8.46 3.84 3.85 8.46 3.85h415.38q4.62 0 8.46-3.85 3.85-3.84 3.85-8.46V-660ZM172.31-60Q142-60 121-81q-21-21-21-51.31V-630q0-12.77 8.62-21.38Q117.23-660 130-660t21.38 8.62Q160-642.77 160-630v497.69q0 4.62 3.85 8.46 3.84 3.85 8.46 3.85H550q12.77 0 21.38 8.62Q580-102.77 580-90t-8.62 21.38Q562.77-60 550-60H172.31ZM320-840v180-180V-280v-560Z"/></svg>
